public/editor-src/editor/icons/fa/naira-sign.svg

<svg xmlns="http://www.w3.org/2000/svg" viewBox="0 0 448 512"><!--! Font Awesome Free 6.4.0 by @fontawesome - https://fontawesome.com License - https://fontawesome.com/license/free (Icons: CC BY 4.0, Fonts: SIL OFL 1.1, Code: MIT License) Copyright 2023 Fonticons, Inc.--><path d="M122.6 46.3c-7.8-11.7-22.4-17-35.9-12.9S64 49.9 64 64v192H32c-17.7 0-32 14.3-32 32s14.3 32 32 32h32v128c0 17.7 14.3 32 32 32s32-14.3 32-32V320h100.2l97.2 145.8c7.8 11.7 22.4 17 35.9 12.9s22.7-16.5 22.7-30.6V320h32c17.7 0 32-14.3 32-32s-14.3-32-32-32h-32V64c0-17.7-14.3-32-32-32s-32 14.3-32 32v192h-57.5L122.6 46.3zM305.1 320H320v22.3L305.1 320zm-119.6-64H128v-86.3l57.5 86.3z"/></svg>

<svg xmlns="http://www.w3.org/2000/svg" viewBox="0 0 448 512"><!--! Font Awesome Free 6.4.0 by @fontawesome - https://fontawesome.com License - https://fontawesome.com/license/free (Icons: CC BY 4.0, Fonts: SIL OFL 1.1, Code: MIT License) Copyright 2023 Fonticons, Inc. --><path d="M122.6 46.3c-7.8-11.7-22.4-17-35.9-12.9S64 49.9 64 64V256H32c-17.7 0-32 14.3-32 32s14.3 32 32 32H64V448c0 17.7 14.3 32 32 32s32-14.3 32-32V320H228.2l97.2 145.8c7.8 11.7 22.4 17 35.9 12.9s22.7-16.5 22.7-30.6V320h32c17.7 0 32-14.3 32-32s-14.3-32-32-32H384V64c0-17.7-14.3-32-32-32s-32 14.3-32 32V256H262.5L122.6 46.3zM305.1 320H320v22.3L305.1 320zM185.5 256H128V169.7L185.5 256z"/></svg>
